X:1
T:Per pianto la mia vita
T:Eliseo Ghibel
T:Source : Primo libro de Madrigali a tre voci---Venetia---A.Gardano---1552. (First print : Venetia---G.Scotto---1551) Editor : André Vierendeels (09/11/17). Notes : Original clefs : C4, C4, F4 Editorial accidentals above the staff
T:Per pianto la mia vita
T:©
T:©
T:©
T:©
C:Eliseo Ghibel
Z:©
%%score [ 1 2 3 ]
L:1/8
Q:1/4=100
M:4/4
K:C
V:1 treble-8 nm="Tenor 1" snm="T 1"
V:2 treble-8 nm="Tenor 2" snm="T 2"
V:3 bass nm="Bass" snm="B"
V:1
 z4 B4 | c4 d2 B2- | B2 c2 A4 | B2 G4 c2- | c2 A2 c4 | c2 c3 B BA | c2 A4 G2- |"^#" G2 F2 G4 | %8
w: Per|pian- to la|_ mia vi-|ta, per pian-|* to la|mia vi- * * *|ta, se di-|* stil- la,|
 z2 d2 d2 d2 | B2 d3 c BA | G3 A B2 c2- | cB G2 A4 | B4 z2 d2 | d2 d2 B2 d2- | dcBA G3 A | %15
w: si co- me'al|sol la _ _ _|_ _ _ ne-||ve, si|co- me'al sol la|_ _ _ _ ne- *|
 BABc d2 G2 |"^#" AG G4 F2 | G4 z2 G2 | GABc d2 D2 | DEFG A3 B | c2 e2 f4 | e4 z2 c2 | %22
w: * * * * ve, la|ne- * * *|ve, o|co- m'al ven- to se, o|co- m'al ven- to se di-|sta la neb-|bia, ne|
 c2 c2 d2 d2 | e2 e2 z2 c2 | c2 c2 d2 d2 | e2 e2 z2 e2 | e2 e2 d2 d2 | d8 | z2 d2 e2 e2 | %29
w: so che far me|deb- bia, ne|so che far me|deb- bia, hor|pen- sa- te'al mio|mal,|hor pen- sa-|
 d2 B2 c4 | d4 e2 c2- | cB G2 A4 | G4 z2 B2 | B2 A2 B2 c2 | B2 d3 c c2- | c2 B2 G2 A2- | %36
w: te'al mio mal|qual es- ser|_ _ _ de-|ve, hor|pen- sa- te'al mio|mal qual _ es-||
"^#" AG G4 F2 | G8- | G8- | G8 |] %40
w: * ser de- *|ve|_||
V:2
 D6 G2- | G2 E2 G2 G2- |"^#""^#" G2 G3 F FE | G2 B2 c4 | A4 e4- | e2 f2 d4 | e2 c3 B G2 | %7
w: Per pian-|* to la mia|_ vi- * * *|ta, per pian-|to la|_ vi- *|ta, se _ di-|
 A4 B2 d2 | d2 d2 B2 d2- | dcBA G3 A | BABc d2 G2 | AG G4 F2 | G8 | z2 d2 d2 d2 | B2 d3 c BA | %15
w: stil- la, si|co- me'al sol la|_ _ _ _ ne- *|* * * * * ve,|la _ ne- *|ve,|si co- me'al|sol la _ _ _|
 G3 A B2 c2- | cB G2 A4 | B2 z2 G2 GA | Bc d2 D2 DE | FG A2 F2 A2- | AB c3 B BA | c4 z2 A2 | %22
w: _ _ _ ne-||ve, o co- m'al|ven- to- se, o co- m'al|ven- to- se di- sta|_ la deb- * * *|bia, ne|
 A2 G2 A2 B2 | c2 c2 z2 A2 | A2 G2 A2 B2 | c2 c2 z2 G2 | c2 c2 B2 B2 | A4 z2 B2 | B2 A2 B2 c2 | %29
w: so che far me|deb- bia, ne|so che far me|deb- bia, hor|pen- sa- te'al mio|mal, hor|pen- sa- te'al mio|
 B2 d3 c c2- | c2 B2 G2 A2- |"^#" AG G4 F2 | G8 | z2 d2 e2 e2 | d2 B2 c4 | d4 e2 c2- | cB G2 A4 | %37
w: mal qual _ es-|* ser de- *||ve,|hor pen- sa-|te'al mio mal|qual es- *|* * ser de-|
 G4 z2 E2 | E2 D2 E4 | D8 |] %40
w: ve, qual|es- ser de-|ve.|
V:3
 G,,8 | C,4 B,,2 E,2 | E,2 C,2 D,4 | G,,4 C,4 | F,4 E,2 A,2- | A,2 F,2 G,4 | C,2 F,4 E,2 | %7
w: Per|pian- to la|mia _ vi-|ta, per|pian- to la|_ mia vi-|ta, se di-|
 D,4 G,,4- | G,,8 | z2 G,2 G,2 G,2 | E,2 G,3 F, E,D, | C,2 E,2 D,4 |"^#" G,,8- | G,,8 | %14
w: stil- la,|_|si co- me'al|sol la _ _ _|_ _ ne-|ve,|_|
 z2 G,2 G,2 G,2 | E,2 G,3 F, E,D, | C,2 E,2 D,4 | G,,2 C,2 C,D,E,F, | G,2 G,,2 G,,A,,B,,C, | %19
w: si co- me'al|sol la _ _ _|_ _ ne-|ve, o co- me'al ven- to-|se, o co- me'al ven- to-|
 D,2 D,4 F,2- | F,2 E,2 D,4 | C,4 z2 F,2 | F,2 E,2 F,2 G,2 | C,2 C,2 z2 F,2 | F,2 E,2 F,2 G,2 | %25
w: se di- sta|_ la neb-|bia, ne|so che far me|deb- bia, ne|so che far me|
 C,2 C,2 z2 C,2 | C,2 C,2 G,2 G,2 | D,4 z2 G,2 | G,2 F,2 E,2 C,2 | G,4 A,4 | G,4 C,2 F,2- | %31
w: deb- bia, hor|pen- sa- te'al mio|mal, hor|pen- sa- te'al mio|mal qual|es- ser de-|
 F,2 E,2 D,4 | G,,4 z2 G,2 | G,2 F,2 E,2 C,2 | G,4 A,4 | G,4 C,2 F,2- | F,2 E,2 D,4 | G,,4 z2 C,2 | %38
w: |ve, hor|pen- sa- te'al mio|mal qual|es- ser de-||ve, qual|
 C,2 B,,2 C,4 | G,,8 |] %40
w: es- ser de-|ve.|

